X:1
T:Title
%%score { 1 | 2 }
L:1/8
M:4/4
K:G
V:1 treble nm="Grand Piano"
V:2 bass 
V:1
 z4 z2[Q:1/4=100] [DB][Ec] | B2 A2 A2 ^G2 | B2 A2 A2 B2 | [CA]2 [B,G]2 [B,G]2 [A,F]2 | %4
[M:3/4] [B,G]6 |[M:1/4] [B,G][B,A] |[M:4/4] [CG]2 F2 F2 E2 | G2 F2 F2 E2 | %8
 [CE]2 [B,D]2 [_B,^C]2 [=B,D]2 |[M:3/4] [DB]6 |[M:1/4] Bc |[M:4/4] B2 A2 A2 ^G2 | B2 A2 A2 B2 | %13
 [CA]2 [B,G]2 [B,G]2 [A,F]2 |[M:3/4] [B,G]6 |[M:1/4] [^CF]E |[M:4/4] A2 A2 ^G2 A2 | B2 B2 _B2 =B2 | %18
 ^c2 c2 B2 c2 |[M:9/8] [Fd]8- [Fd] |[M:1/4] [Fd][Fd] |[M:4/4] [Fd]2 [Fc]2 [CE]2 [CF]2 | %22
 [CA]2 [B,G]4 [DB][DB] | [^DB]2 [DA]2 [DG]2 [DF]2 |[M:3/4] G6 |[M:1/4] GG | %26
[M:4/4] [EA]2 [EA]2 [E_B]2 [EB]2 | [DB]2 [Gd]4 [Gd][Ge] | [Gd]2 [GB]2 [FB]3 [DA] | %29
[M:3/4] [B,DG]6 |] %30
V:2
 z4 z2 [G,,G,][G,,G,] | [D,F,D]2 [D,F,C]2 [D,F,C]2 [D,=F,B,]2 | [D,F,D]2 [D,F,C]2 [D,F,C]2 [D,D]2 | %3
 [G,,D,]2 [G,,D,]2 [G,,D,]2 [G,,D,]2 |[M:3/4] [G,,D,]6 |[M:1/4] [G,,D,][G,,D,] | %6
[M:4/4] [A,,D,]2 [D,A,C]2 [D,A,C]2 [D,G,C]2 | [D,A,C]2 [D,A,C]2 [D,A,C]2 [D,F,C]2 | %8
 [G,,G,]2 [G,,G,]2 [G,,G,]2 [G,,G,]2 |[M:3/4] [G,,G,]6 |[M:1/4] [G,D][G,E] | %11
[M:4/4] [D,F,D]2 [D,F,C]2 [D,F,C]2 [D,=F,B,]2 | [D,F,D]2 [D,F,C]2 [D,F,C]2 [D,D]2 | %13
 [G,,D,]2 [G,,D,]2 [G,,D,]2 [G,,D,]2 |[M:3/4] [G,,D,]6 |[M:1/4] [A,,A,][G,A,^C] | %16
[M:4/4] [F,A,D]2 [F,A,D]2 [=F,B,D]2 [^F,A,D]2 | [G,D]2 [G,D]2 [E,G,^D]2 [E,^G,D]2 | %18
 [A,E]2 [A,G]2 [A,G]2 [A,G]2 |[M:9/8][K:bass] [D,A,]8- [D,A,] |[M:1/4] [D,A,][D,A,] | %21
[M:4/4] [D,A,]2 [D,A,]2 [D,A,]2 [D,A,]2 | [G,,G,]2 [G,,G,]4 [G,,G,][G,,G,] | %23
 [B,,F,]2 [B,,F,]2 [B,,B,]2 [B,,B,]2 |[M:3/4] [E,B,E]6 |[M:1/4] [E,B,E][E,B,E] | %26
[M:4/4] [C,C]2 [C,C]2 [^C,G,]2 [C,G,]2 | [D,G,]2 [B,,G,]4 [B,,G,][C,C] | %28
 [D,B,]2 [D,D]2 [D,D]3 [D,C] |[M:3/4] [G,,G,]6 |] %30

